images/fetch.svg

<svg height="250" viewBox="0 0 250 250" width="250" xmlns="http://www.w3.org/2000/svg"><g fill="#202943"><path d="m.0976562 0h30.2656248v30.226562h-30.2656248zm0 0"/><path d="m75.765625 0h30.269531v30.226562h-30.269531zm0 0"/><path d="m151.433594 0h30.269531v30.226562h-30.269531zm0 0"/><path d="m.0976562 75.664062h30.2656248v30.226563h-30.2656248zm0 0"/><path d="m75.765625 75.664062h30.269531v30.226563h-30.269531zm0 0"/><path d="m.0976562 151.519531h30.2656248v30.226563h-30.2656248zm0 0"/><path d="m249.902344 15.210938c0 4.199218-3.34375 7.605468-7.46875 7.605468s-7.46875-3.40625-7.46875-7.605468c0-4.199219 3.34375-7.605469 7.46875-7.605469s7.46875 3.40625 7.46875 7.605469zm0 0"/><path d="m249.902344 90.875c0 4.199219-3.34375 7.605469-7.46875 7.605469s-7.46875-3.40625-7.46875-7.605469c0-4.203125 3.34375-7.605469 7.46875-7.605469s7.46875 3.402344 7.46875 7.605469zm0 0"/><path d="m249.902344 166.535156c0 4.203125-3.34375 7.605469-7.46875 7.605469s-7.46875-3.402344-7.46875-7.605469c0-4.199218 3.34375-7.605468 7.46875-7.605468s7.46875 3.40625 7.46875 7.605468zm0 0"/><path d="m249.902344 242.394531c0 4.199219-3.34375 7.605469-7.46875 7.605469s-7.46875-3.40625-7.46875-7.605469 3.34375-7.605469 7.46875-7.605469 7.46875 3.40625 7.46875 7.605469zm0 0"/><path d="m174.039062 90.875c0 4.199219-3.34375 7.605469-7.46875 7.605469s-7.46875-3.40625-7.46875-7.605469c0-4.203125 3.34375-7.605469 7.46875-7.605469s7.46875 3.402344 7.46875 7.605469zm0 0"/><path d="m174.039062 166.535156c0 4.203125-3.34375 7.605469-7.46875 7.605469s-7.46875-3.402344-7.46875-7.605469c0-4.199218 3.34375-7.605468 7.46875-7.605468s7.46875 3.40625 7.46875 7.605468zm0 0"/><path d="m174.039062 242.394531c0 4.199219-3.34375 7.605469-7.46875 7.605469s-7.46875-3.40625-7.46875-7.605469 3.34375-7.605469 7.46875-7.605469 7.46875 3.40625 7.46875 7.605469zm0 0"/><path d="m98.367188 166.535156c0 4.203125-3.34375 7.605469-7.46875 7.605469s-7.46875-3.402344-7.46875-7.605469c0-4.199218 3.34375-7.605468 7.46875-7.605468s7.46875 3.40625 7.46875 7.605468zm0 0"/><path d="m98.367188 242.394531c0 4.199219-3.34375 7.605469-7.46875 7.605469s-7.46875-3.40625-7.46875-7.605469 3.34375-7.605469 7.46875-7.605469 7.46875 3.40625 7.46875 7.605469zm0 0"/><path d="m22.699219 242.394531c0 4.199219-3.34375 7.605469-7.46875 7.605469s-7.46875-3.40625-7.46875-7.605469 3.34375-7.605469 7.46875-7.605469 7.46875 3.40625 7.46875 7.605469zm0 0"/></g></svg>

<!-- Generator: Adobe Illustrator 25.0.0, SVG Export Plug-In . SVG Version: 6.00 Build 0)  -->
<svg xmlns="http://www.w3.org/2000/svg" xmlns:xlink="http://www.w3.org/1999/xlink" width="250px" height="250px" viewBox="0 0 250 250" version="1.1">
<g id="surface1">
<path style=" stroke:none;fill-rule:nonzero;fill:rgb(12.54902%,16.078432%,26.274511%);fill-opacity:1;" d="M 0.0976562 0 L 30.363281 0 L 30.363281 30.226562 L 0.0976562 30.226562 Z M 0.0976562 0 "/>
<path style=" stroke:none;fill-rule:nonzero;fill:rgb(12.54902%,16.078432%,26.274511%);fill-opacity:1;" d="M 75.765625 0 L 106.035156 0 L 106.035156 30.226562 L 75.765625 30.226562 Z M 75.765625 0 "/>
<path style=" stroke:none;fill-rule:nonzero;fill:rgb(12.54902%,16.078432%,26.274511%);fill-opacity:1;" d="M 151.433594 0 L 181.703125 0 L 181.703125 30.226562 L 151.433594 30.226562 Z M 151.433594 0 "/>
<path style=" stroke:none;fill-rule:nonzero;fill:rgb(12.54902%,16.078432%,26.274511%);fill-opacity:1;" d="M 0.0976562 75.664062 L 30.363281 75.664062 L 30.363281 105.890625 L 0.0976562 105.890625 Z M 0.0976562 75.664062 "/>
<path style=" stroke:none;fill-rule:nonzero;fill:rgb(12.54902%,16.078432%,26.274511%);fill-opacity:1;" d="M 75.765625 75.664062 L 106.035156 75.664062 L 106.035156 105.890625 L 75.765625 105.890625 Z M 75.765625 75.664062 "/>
<path style=" stroke:none;fill-rule:nonzero;fill:rgb(12.54902%,16.078432%,26.274511%);fill-opacity:1;" d="M 0.0976562 151.519531 L 30.363281 151.519531 L 30.363281 181.746094 L 0.0976562 181.746094 Z M 0.0976562 151.519531 "/>
<path style=" stroke:none;fill-rule:nonzero;fill:rgb(12.54902%,16.078432%,26.274511%);fill-opacity:1;" d="M 249.902344 15.210938 C 249.902344 19.410156 246.558594 22.816406 242.433594 22.816406 C 238.308594 22.816406 234.964844 19.410156 234.964844 15.210938 C 234.964844 11.011719 238.308594 7.605469 242.433594 7.605469 C 246.558594 7.605469 249.902344 11.011719 249.902344 15.210938 Z M 249.902344 15.210938 "/>
<path style=" stroke:none;fill-rule:nonzero;fill:rgb(12.54902%,16.078432%,26.274511%);fill-opacity:1;" d="M 249.902344 90.875 C 249.902344 95.074219 246.558594 98.480469 242.433594 98.480469 C 238.308594 98.480469 234.964844 95.074219 234.964844 90.875 C 234.964844 86.671875 238.308594 83.269531 242.433594 83.269531 C 246.558594 83.269531 249.902344 86.671875 249.902344 90.875 Z M 249.902344 90.875 "/>
<path style=" stroke:none;fill-rule:nonzero;fill:rgb(12.54902%,16.078432%,26.274511%);fill-opacity:1;" d="M 249.902344 166.535156 C 249.902344 170.738281 246.558594 174.140625 242.433594 174.140625 C 238.308594 174.140625 234.964844 170.738281 234.964844 166.535156 C 234.964844 162.335938 238.308594 158.929688 242.433594 158.929688 C 246.558594 158.929688 249.902344 162.335938 249.902344 166.535156 Z M 249.902344 166.535156 "/>
<path style=" stroke:none;fill-rule:nonzero;fill:rgb(12.54902%,16.078432%,26.274511%);fill-opacity:1;" d="M 249.902344 242.394531 C 249.902344 246.59375 246.558594 250 242.433594 250 C 238.308594 250 234.964844 246.59375 234.964844 242.394531 C 234.964844 238.195312 238.308594 234.789062 242.433594 234.789062 C 246.558594 234.789062 249.902344 238.195312 249.902344 242.394531 Z M 249.902344 242.394531 "/>
<path style=" stroke:none;fill-rule:nonzero;fill:rgb(12.54902%,16.078432%,26.274511%);fill-opacity:1;" d="M 174.039062 90.875 C 174.039062 95.074219 170.695312 98.480469 166.570312 98.480469 C 162.445312 98.480469 159.101562 95.074219 159.101562 90.875 C 159.101562 86.671875 162.445312 83.269531 166.570312 83.269531 C 170.695312 83.269531 174.039062 86.671875 174.039062 90.875 Z M 174.039062 90.875 "/>
<path style=" stroke:none;fill-rule:nonzero;fill:rgb(12.54902%,16.078432%,26.274511%);fill-opacity:1;" d="M 174.039062 166.535156 C 174.039062 170.738281 170.695312 174.140625 166.570312 174.140625 C 162.445312 174.140625 159.101562 170.738281 159.101562 166.535156 C 159.101562 162.335938 162.445312 158.929688 166.570312 158.929688 C 170.695312 158.929688 174.039062 162.335938 174.039062 166.535156 Z M 174.039062 166.535156 "/>
<path style=" stroke:none;fill-rule:nonzero;fill:rgb(12.54902%,16.078432%,26.274511%);fill-opacity:1;" d="M 174.039062 242.394531 C 174.039062 246.59375 170.695312 250 166.570312 250 C 162.445312 250 159.101562 246.59375 159.101562 242.394531 C 159.101562 238.195312 162.445312 234.789062 166.570312 234.789062 C 170.695312 234.789062 174.039062 238.195312 174.039062 242.394531 Z M 174.039062 242.394531 "/>
<path style=" stroke:none;fill-rule:nonzero;fill:rgb(12.54902%,16.078432%,26.274511%);fill-opacity:1;" d="M 98.367188 166.535156 C 98.367188 170.738281 95.023438 174.140625 90.898438 174.140625 C 86.773438 174.140625 83.429688 170.738281 83.429688 166.535156 C 83.429688 162.335938 86.773438 158.929688 90.898438 158.929688 C 95.023438 158.929688 98.367188 162.335938 98.367188 166.535156 Z M 98.367188 166.535156 "/>
<path style=" stroke:none;fill-rule:nonzero;fill:rgb(12.54902%,16.078432%,26.274511%);fill-opacity:1;" d="M 98.367188 242.394531 C 98.367188 246.59375 95.023438 250 90.898438 250 C 86.773438 250 83.429688 246.59375 83.429688 242.394531 C 83.429688 238.195312 86.773438 234.789062 90.898438 234.789062 C 95.023438 234.789062 98.367188 238.195312 98.367188 242.394531 Z M 98.367188 242.394531 "/>
<path style=" stroke:none;fill-rule:nonzero;fill:rgb(12.54902%,16.078432%,26.274511%);fill-opacity:1;" d="M 22.699219 242.394531 C 22.699219 246.59375 19.355469 250 15.230469 250 C 11.105469 250 7.761719 246.59375 7.761719 242.394531 C 7.761719 238.195312 11.105469 234.789062 15.230469 234.789062 C 19.355469 234.789062 22.699219 238.195312 22.699219 242.394531 Z M 22.699219 242.394531 "/>
</g>
</svg>
